icon/hi/thumb-down.svg

<svg viewBox="0 0 20 20" fill="none" xmlns="http://www.w3.org/2000/svg" height="1em" width="1em">
  <path d="M18 9.5C18 10.3284 17.3285 11 16.5 11C15.6716 11 15 10.3284 15 9.5V3.5C15 2.67157 15.6716 2 16.5 2C17.3285 2 18 2.67157 18 3.5V9.5Z" fill="#374151"/>
  <path d="M14 9.66667V4.23607C14 3.47852 13.572 2.786 12.8945 2.44721L12.8446 2.42229C12.2892 2.14458 11.6767 2 11.0558 2L5.63964 2C4.68628 2 3.86545 2.67292 3.67848 3.60777L2.47848 9.60777C2.23097 10.8453 3.17755 12 4.43964 12H8.00004V16C8.00004 17.1046 8.89547 18 10 18C10.5523 18 11 17.5523 11 17V16.3333C11 15.4679 11.2807 14.6257 11.8 13.9333L13.2 12.0667C13.7193 11.3743 14 10.5321 14 9.66667Z" fill="#374151"/>
</svg>

<svg width="20" height="20" fill="none" xmlns="http://www.w3.org/2000/svg"><path d="M18 9.5a1.5 1.5 0 1 1-3 0v-6a1.5 1.5 0 0 1 3 0v6ZM14 9.667v-5.43a2 2 0 0 0-1.105-1.79l-.05-.025A4 4 0 0 0 11.055 2H5.64a2 2 0 0 0-1.962 1.608l-1.2 6A2 2 0 0 0 4.44 12H8v4a2 2 0 0 0 2 2 1 1 0 0 0 1-1v-.667a4 4 0 0 1 .8-2.4l1.4-1.866a4 4 0 0 0 .8-2.4Z" fill="#374151"/></svg>
